X:1
T:Title
%%score { ( 1 3 ) | 2 }
L:1/8
Q:1/4=100
M:4/4
K:G
V:1 treble nm="Grand Piano"
V:3 treble 
V:2 bass 
V:1
 G2 G2 G3 D | G2 [FA]2 B2 G2 | E2 E2 [B,D]3 G | c2 B2 [FA]4 | G2 G2 G3 D | G2 [FA]2 [GB]2 [DG]2 | %6
w: J.~Lincoln~Hall * * *||||||
 [Ge]2 [Ge]2 d3 G |[M:3/4] [GB]2 [FA]2 G2 |[M:1/4] D>D |[M:4/4] B6 z2 | B,2 B,>B, B,2 B>B | %11
w: |||||
 d2- [Fd-]>[Fd-] [Fd]>[Fc] [FA]>[Fc] | B6 z2 | [Ge]3 [Ge] d2 G2 | [Fc]2 [Fd]2 B2 G>G | %15
w: ||||
 [EA]3 [Ec] [DB]2 [CA]2 | [B,G]6 z2 |] %17
w: ||
V:2
 [G,B,D]2 [G,B,D]2 [G,B,D]3 [G,B,] | [G,B,D]2 [D,D]2[K:treble] [G,DG]2 [G,B,D]2 | %2
 [C,G,C]2 [C,G,C]2 [G,,G,]3 [G,B,D] | [F,A,D]2 [G,D]2 [D,D]4 | [G,B,D]2 [G,B,D]2 [G,B,D]3 [G,B,] | %5
 [G,B,D]2 [D,D]2 [G,D]2 [G,B,]2 | [C,C]2 [E,C]2[K:treble] [G,B,G]3 [G,B,] | %7
[M:3/4][K:bass] [D,D]2 [D,C]2 [G,B,D]2 |[M:1/4] [G,B,]>[G,B,] | %9
[M:4/4] [G,,G,]2 [G,,G,]>[G,,G,] [G,,G,]>[G,,G,] [G,,G,]>[G,,G,] | %10
 [G,,G,]2 [G,,G,]>[G,,G,] [G,,G,]2[K:treble] [G,DG]>[G,DG] | %11
 [D,D]2 [D,A,]>[D,A,] [D,A,]>[D,A,] [D,D]>[D,D] | %12
 [G,DG]2 [G,D]>[G,D] [G,D]2 [G,B,]>[K:bass][G,B,] | [C,C]3 [C,C][K:treble] [G,B,G]2 [G,B,]2 | %14
 [D,A,]2 [D,D]2[K:treble] [G,DG]2 [G,B,D]>[K:bass][G,B,D] | [C,A,]3 [A,,A,] [D,G,]2 [D,F,]2 | %16
 [G,,G,]6 z2 |] %17
V:3
 x8 | x8 | x8 | x8 | x8 | x8 | x8 |[M:3/4] x6 |[M:1/4] x2 |[M:4/4] D2 D>D D>[CA] [B,G]>[CE] | %10
 D6 z2 | F2 z2 z4 | z2 G>G G2 G>G | x8 | x8 | x8 | x8 |] %17

